X: 24837
T: Maggie West's
R: waltz
M: 3/4
K: Gmajor
|:"G" B3 B AG|"C" E G3 GA|"G" B>d d>g (3gab|"D" a4 ga|"C" g e3 ge|
"G" d3 B (3BAG|1 "Am" A3 B A>G|"D" A3 EGA:|2 "D" A3 B GF|"C" G3 d (3BAG||
|:"G" A G2 d (3BAG|"C" A G2 d (3BAG|"G" A>B d>g (3gab|"D" a4 ga|"C" g e3 ge|
"G" d3 B (3BAG|1 "Am" A3 B A>G|"D" A3 d (3BAG:|2 "D" A3 B GF|"C" G6||

